X: 1
T: Garrett Barry's
R: reel
M: 4/4
L: 1/8
K: Gmaj
G3Bdz Bd|edce dGBd|G3Bdz Bd|AE3 GEDE|
G3B d2 Bd|edcB cdeg|edcB cdef|gedB AGE2|
g3bagez|edce dGBd|g3bagez|e aabag ef|
|g2 bg ag bg|edcedGBd|edcB cdez|gedB AGE2|

